X:39
T:Merry Hunters THO4.039, The
M:2/4
L:1/8
Z:vmp. Peter Dunk 2010/11.from a transcription by Fynn Titford-Mock 2007
B:Thompson's Compleat Collection of 200 Favourite Country Dances Volume IV.
Q:1/4=140
K:F
F>FF>F|TG3d|c>BA>G|A>c f2|F>FF>A|G3 d|e>dc>=B|c4:|
|:c>cc>c|b3 a|g>fe>d|c>BA>G|A>Fc>A|f2 ed|c>BA>G|F4:|
